packages/icons/src/SVG/replay-10.svg

<svg width="12" height="12" viewBox="0 0 12 12" >
<path d="M7.97886 2C10.2278 2 12.0395 3.83469 11.9993 6.07142C11.9602 8.25237 10.1717 10 7.97886 10H4V12L0 9.5L4 7V9H7.97886C9.62347 9 10.9649 7.68928 10.9942 6.05356C11.0243 4.37602 9.66553 3 7.97886 3V2Z" />
<path d="M2.54541 5.25H1.73877V2.03369C1.73877 1.9266 1.73991 1.8195 1.74219 1.7124C1.74447 1.60531 1.74674 1.50049 1.74902 1.39795C1.75358 1.29541 1.75928 1.19743 1.76611 1.104C1.71826 1.15641 1.65902 1.21338 1.58838 1.2749C1.52002 1.33643 1.4471 1.40023 1.36963 1.46631L0.79541 1.92432L0.39209 1.41504L1.87549 0.25293H2.54541V5.25Z" />
<path d="M7.07324 2.74805C7.07324 3.15137 7.04134 3.51253 6.97754 3.83154C6.91602 4.14827 6.81803 4.41715 6.68359 4.63818C6.54915 4.85921 6.3737 5.02783 6.15723 5.14404C5.94076 5.26025 5.67871 5.31836 5.37109 5.31836C4.986 5.31836 4.66813 5.21696 4.41748 5.01416C4.16683 4.80908 3.98112 4.51514 3.86035 4.13232C3.73958 3.74723 3.6792 3.28581 3.6792 2.74805C3.6792 2.21029 3.73389 1.75 3.84326 1.36719C3.95492 0.982096 4.13493 0.687012 4.3833 0.481934C4.63167 0.276855 4.96094 0.174316 5.37109 0.174316C5.75846 0.174316 6.07747 0.276855 6.32812 0.481934C6.58105 0.684733 6.7679 0.978678 6.88867 1.36377C7.01172 1.74658 7.07324 2.20801 7.07324 2.74805ZM4.48926 2.74805C4.48926 3.1696 4.5166 3.52165 4.57129 3.8042C4.62826 4.08675 4.72168 4.29867 4.85156 4.43994C4.98145 4.57894 5.15462 4.64844 5.37109 4.64844C5.58756 4.64844 5.76074 4.57894 5.89062 4.43994C6.02051 4.30094 6.11393 4.09017 6.1709 3.80762C6.23014 3.52507 6.25977 3.17188 6.25977 2.74805C6.25977 2.32878 6.23128 1.97786 6.17432 1.69531C6.11735 1.41276 6.02393 1.20085 5.89404 1.05957C5.76416 0.916016 5.58984 0.844238 5.37109 0.844238C5.15234 0.844238 4.97803 0.916016 4.84814 1.05957C4.72054 1.20085 4.62826 1.41276 4.57129 1.69531C4.5166 1.97786 4.48926 2.32878 4.48926 2.74805Z" />
</svg>

<!-- Generated by IcoMoon.io -->
<svg version="1.1" xmlns="http://www.w3.org/2000/svg" width="12" height="12" viewBox="0 0 12 12">
<title>replay-10</title>
<path fill="#4c505b" d="M7.979 2c2.249 0 4.061 1.835 4.020 4.071-0.039 2.181-1.828 3.929-4.020 3.929h-3.979v2l-4-2.5 4-2.5v2h3.979c1.645 0 2.986-1.311 3.015-2.946 0.030-1.678-1.329-3.054-3.015-3.054v-1z"></path>
<path fill="#4c505b" d="M2.545 5.25h-0.807v-3.216c0-0.107 0.001-0.214 0.003-0.321s0.005-0.212 0.007-0.314c0.005-0.103 0.010-0.201 0.017-0.294-0.048 0.052-0.107 0.109-0.178 0.171-0.068 0.062-0.141 0.125-0.219 0.191l-0.574 0.458-0.403-0.509 1.483-1.162h0.67v4.997z"></path>
<path fill="#4c505b" d="M7.073 2.748c0 0.403-0.032 0.764-0.096 1.083-0.062 0.317-0.16 0.586-0.294 0.807s-0.31 0.39-0.526 0.506c-0.216 0.116-0.479 0.174-0.786 0.174-0.385 0-0.703-0.101-0.954-0.304-0.251-0.205-0.436-0.499-0.557-0.882-0.121-0.385-0.181-0.847-0.181-1.384s0.055-0.998 0.164-1.381c0.112-0.385 0.292-0.68 0.54-0.885s0.578-0.308 0.988-0.308c0.387 0 0.706 0.103 0.957 0.308 0.253 0.203 0.44 0.497 0.561 0.882 0.123 0.383 0.185 0.844 0.185 1.384zM4.489 2.748c0 0.422 0.027 0.774 0.082 1.056 0.057 0.283 0.15 0.494 0.28 0.636 0.13 0.139 0.303 0.209 0.52 0.209s0.39-0.070 0.52-0.209c0.13-0.139 0.223-0.35 0.28-0.632 0.059-0.283 0.089-0.636 0.089-1.060 0-0.419-0.028-0.77-0.085-1.053s-0.15-0.494-0.28-0.636c-0.13-0.144-0.304-0.215-0.523-0.215s-0.393 0.072-0.523 0.215c-0.128 0.141-0.22 0.353-0.277 0.636-0.055 0.283-0.082 0.633-0.082 1.053z"></path>
</svg>
